src/assets/logos/coinlist.svg

<svg height="30" viewBox="0 0 287 30" width="287" xmlns="http://www.w3.org/2000/svg"><path d="m46.8589286 3.66535714c-.5839286 0-1.0585715.47517857-1.0585715 1.05857143v20.49482143c0 .5839286.4746429 1.0585714 1.0585715 1.0585714h19.6339285c.5833929 0 1.0585715-.4746428 1.0585715-1.0585714v-20.49482143c0-.58339286-.4751786-1.05857143-1.0585715-1.05857143zm19.6339285 26.02821426h-19.6339285c-2.4675 0-4.4748215-2.0073214-4.4748215-4.4748214v-20.49482143c0-2.4675 2.0073215-4.47482143 4.4748215-4.47482143h19.6339285c2.4669643 0 4.4748215 2.00732143 4.4748215 4.47482143v20.49482143c0 2.4675-2.0078572 4.4748214-4.4748215 4.4748214zm173.8419639.0519643h-20.631964v-3.41625h20.631964c.583393 0 1.058572-.4751786 1.058572-1.0591071v-7.69125c0-.5833929-.475179-1.0585715-2.193214-1.0585715h-16.21125c-1.332858 0-3.340179-2.0073214-3.340179-4.4748214v-7.26964284c0-2.4675 2.007321-4.47482143 4.474286-4.47482143h19.787143v3.41625h-19.787143c-.583393 0-1.058036.47464286-1.058036 1.05857143v7.26964284c0 .5839286.474643 1.0585714 1.058036 1.0585714h16.211785c2.466965 0 4.474822 2.0073215 4.474822 4.4748215v7.69125c0 2.4675-2.007857 4.4753571-4.474822 4.4753571zm-59.541428-.0064286h-22.520893v-29.4391071h3.41625v26.0228571h19.104643zm-44.432679-.0048214-21.185357-24.27482141v24.30535711h-3.41625v-29.46803569h3.444643l21.721607 24.88553569-.002678-24.8823214h3.41625l.003214 29.4342857zm-46.7099997.0101786v-29.4444643h3.4301786v29.4444643zm107.5510717-.0026786v-29.44499999h3.430714v29.44499999zm89.623393-29.44017856v3.43017857h-12.028393v26.01267859h-3.430179v-26.01267859h-12.028393v-3.43017857h12.028393v-.00482143h3.430179v.00482143zm-261.415179 29.39196426h-20.71071429c-2.46696428 0-4.47482142-2.0073214-4.47482142-4.4748214v-20.49482143c0-2.4675 2.00785714-4.47482143 4.47482142-4.47482143h20.71071429v3.41625h-20.71071429c-.58339285 0-1.05857142.47517857-1.05857142 1.05857143v20.49482143c0 .5839286.47517857 1.0585714 1.05857142 1.0585714h20.71071429z"/></svg>

<svg xmlns="http://www.w3.org/2000/svg" width="287" height="30" viewBox="0 0 287 30">
  <path d="M46.8589286,3.66535714 C46.275,3.66535714 45.8003571,4.14053571 45.8003571,4.72392857 L45.8003571,25.21875 C45.8003571,25.8026786 46.275,26.2773214 46.8589286,26.2773214 L66.4928571,26.2773214 C67.07625,26.2773214 67.5514286,25.8026786 67.5514286,25.21875 L67.5514286,4.72392857 C67.5514286,4.14053571 67.07625,3.66535714 66.4928571,3.66535714 L46.8589286,3.66535714 Z M66.4928571,29.6935714 L46.8589286,29.6935714 C44.3914286,29.6935714 42.3841071,27.68625 42.3841071,25.21875 L42.3841071,4.72392857 C42.3841071,2.25642857 44.3914286,0.249107143 46.8589286,0.249107143 L66.4928571,0.249107143 C68.9598214,0.249107143 70.9676786,2.25642857 70.9676786,4.72392857 L70.9676786,25.21875 C70.9676786,27.68625 68.9598214,29.6935714 66.4928571,29.6935714 Z M240.334821,29.7455357 L219.702857,29.7455357 L219.702857,26.3292857 L240.334821,26.3292857 C240.918214,26.3292857 241.393393,25.8541071 241.393393,25.2701786 L241.393393,17.5789286 C241.393393,16.9955357 240.918214,16.5203571 239.200179,16.5203571 L222.988929,16.5203571 C221.656071,16.5203571 219.64875,14.5130357 219.64875,12.0455357 L219.64875,4.77589286 C219.64875,2.30839286 221.656071,0.301071429 224.123036,0.301071429 L243.910179,0.301071429 L243.910179,3.71732143 L224.123036,3.71732143 C223.539643,3.71732143 223.065,4.19196429 223.065,4.77589286 L223.065,12.0455357 C223.065,12.6294643 223.539643,13.1041071 224.123036,13.1041071 L240.334821,13.1041071 C242.801786,13.1041071 244.809643,15.1114286 244.809643,17.5789286 L244.809643,25.2701786 C244.809643,27.7376786 242.801786,29.7455357 240.334821,29.7455357 Z M180.793393,29.7391071 L158.2725,29.7391071 L158.2725,0.3 L161.68875,0.3 L161.68875,26.3228571 L180.793393,26.3228571 L180.793393,29.7391071 Z M136.360714,29.7342857 L115.175357,5.45946429 L115.175357,29.7648214 L111.759107,29.7648214 L111.759107,0.296785714 L115.20375,0.296785714 L136.925357,25.1823214 L136.922679,0.3 L140.338929,0.3 L140.342143,29.7342857 L136.360714,29.7342857 Z M89.6507143,29.7444643 L89.6507143,0.3 L93.0808929,0.3 L93.0808929,29.7444643 L89.6507143,29.7444643 Z M197.201786,29.7417857 L197.201786,0.296785714 L200.6325,0.296785714 L200.6325,29.7417857 L197.201786,29.7417857 Z M286.825179,0.301607143 L286.825179,3.73178571 L274.796786,3.73178571 L274.796786,29.7444643 L271.366607,29.7444643 L271.366607,3.73178571 L259.338214,3.73178571 L259.338214,0.301607143 L271.366607,0.301607143 L271.366607,0.296785714 L274.796786,0.296785714 L274.796786,0.301607143 L286.825179,0.301607143 Z M25.41,29.6935714 L4.69928571,29.6935714 C2.23232143,29.6935714 0.224464286,27.68625 0.224464286,25.21875 L0.224464286,4.72392857 C0.224464286,2.25642857 2.23232143,0.249107143 4.69928571,0.249107143 L25.41,0.249107143 L25.41,3.66535714 L4.69928571,3.66535714 C4.11589286,3.66535714 3.64071429,4.14053571 3.64071429,4.72392857 L3.64071429,25.21875 C3.64071429,25.8026786 4.11589286,26.2773214 4.69928571,26.2773214 L25.41,26.2773214 L25.41,29.6935714 Z"/>
</svg>
